assets/img/icons/duotone-icons/Navigation/Waiting.svg

<?xml version="1.0" encoding="UTF-8"?>
<svg width="24px" height="24px" viewBox="0 0 24 24" version="1.1" xmlns="http://www.w3.org/2000/svg" xmlns:xlink="http://www.w3.org/1999/xlink">
    <!-- Generator: Sketch 52.2 (67145) - http://www.bohemiancoding.com/sketch -->
    <title>Stockholm-icons / Navigation / Waiting</title>
    <desc>Created with Sketch.</desc>
    <g id="Stockholm-icons-/-Navigation-/-Waiting" stroke="none" stroke-width="1" fill="none" fill-rule="evenodd">
        <rect id="bound" x="0" y="0" width="24" height="24"></rect>
        <path d="M19.5,10.5 L21,10.5 C21.8284271,10.5 22.5,11.1715729 22.5,12 C22.5,12.8284271 21.8284271,13.5 21,13.5 L19.5,13.5 C18.6715729,13.5 18,12.8284271 18,12 C18,11.1715729 18.6715729,10.5 19.5,10.5 Z M16.0606602,5.87132034 L17.1213203,4.81066017 C17.7071068,4.22487373 18.6568542,4.22487373 19.2426407,4.81066017 C19.8284271,5.39644661 19.8284271,6.34619408 19.2426407,6.93198052 L18.1819805,7.99264069 C17.5961941,8.57842712 16.6464466,8.57842712 16.0606602,7.99264069 C15.4748737,7.40685425 15.4748737,6.45710678 16.0606602,5.87132034 Z M16.0606602,18.1819805 C15.4748737,17.5961941 15.4748737,16.6464466 16.0606602,16.0606602 C16.6464466,15.4748737 17.5961941,15.4748737 18.1819805,16.0606602 L19.2426407,17.1213203 C19.8284271,17.7071068 19.8284271,18.6568542 19.2426407,19.2426407 C18.6568542,19.8284271 17.7071068,19.8284271 17.1213203,19.2426407 L16.0606602,18.1819805 Z M3,10.5 L4.5,10.5 C5.32842712,10.5 6,11.1715729 6,12 C6,12.8284271 5.32842712,13.5 4.5,13.5 L3,13.5 C2.17157288,13.5 1.5,12.8284271 1.5,12 C1.5,11.1715729 2.17157288,10.5 3,10.5 Z M12,1.5 C12.8284271,1.5 13.5,2.17157288 13.5,3 L13.5,4.5 C13.5,5.32842712 12.8284271,6 12,6 C11.1715729,6 10.5,5.32842712 10.5,4.5 L10.5,3 C10.5,2.17157288 11.1715729,1.5 12,1.5 Z M12,18 C12.8284271,18 13.5,18.6715729 13.5,19.5 L13.5,21 C13.5,21.8284271 12.8284271,22.5 12,22.5 C11.1715729,22.5 10.5,21.8284271 10.5,21 L10.5,19.5 C10.5,18.6715729 11.1715729,18 12,18 Z M4.81066017,4.81066017 C5.39644661,4.22487373 6.34619408,4.22487373 6.93198052,4.81066017 L7.99264069,5.87132034 C8.57842712,6.45710678 8.57842712,7.40685425 7.99264069,7.99264069 C7.40685425,8.57842712 6.45710678,8.57842712 5.87132034,7.99264069 L4.81066017,6.93198052 C4.22487373,6.34619408 4.22487373,5.39644661 4.81066017,4.81066017 Z M4.81066017,19.2426407 C4.22487373,18.6568542 4.22487373,17.7071068 4.81066017,17.1213203 L5.87132034,16.0606602 C6.45710678,15.4748737 7.40685425,15.4748737 7.99264069,16.0606602 C8.57842712,16.6464466 8.57842712,17.5961941 7.99264069,18.1819805 L6.93198052,19.2426407 C6.34619408,19.8284271 5.39644661,19.8284271 4.81066017,19.2426407 Z" id="Oval" fill="#335EEA" opacity="0.3"></path>
    </g>
</svg>

<svg width="24" height="24" viewBox="0 0 24 24" xmlns="http://www.w3.org/2000/svg"><g fill="none" fill-rule="evenodd"><path d="M0 0h24v24H0z"/><path d="M19.5 10.5H21a1.5 1.5 0 010 3h-1.5a1.5 1.5 0 010-3zm-3.44-4.629l1.061-1.06a1.5 1.5 0 012.122 2.121l-1.061 1.06a1.5 1.5 0 11-2.121-2.12zm0 12.311a1.5 1.5 0 112.122-2.121l1.06 1.06a1.5 1.5 0 01-2.12 2.122l-1.061-1.061zM3 10.5h1.5a1.5 1.5 0 010 3H3a1.5 1.5 0 010-3zm9-9A1.5 1.5 0 0113.5 3v1.5a1.5 1.5 0 01-3 0V3A1.5 1.5 0 0112 1.5zM12 18a1.5 1.5 0 011.5 1.5V21a1.5 1.5 0 01-3 0v-1.5A1.5 1.5 0 0112 18zM4.81 4.81a1.5 1.5 0 012.122 0l1.06 1.061a1.5 1.5 0 01-2.12 2.122L4.81 6.932a1.5 1.5 0 010-2.121zm0 14.433a1.5 1.5 0 010-2.122l1.061-1.06a1.5 1.5 0 112.122 2.121l-1.061 1.06a1.5 1.5 0 01-2.121 0z" fill="#335EEA" opacity=".3"/></g></svg>
